material/.icons/material/home-group.svg

<svg xmlns="http://www.w3.org/2000/svg" viewBox="0 0 24 24"><path d="M17 16h-2v6h-3v-5H8v5H5v-6H3l7-6 7 6M6 2l4 4H9v3H7V6H5v3H3V6H2l4-4m12 1l5 5h-1v4h-3V9h-2v3h-1.66L14 10.87V8h-1l5-5z"/></svg>

<?xml version="1.0" encoding="UTF-8"?><!DOCTYPE svg PUBLIC "-//W3C//DTD SVG 1.1//EN" "http://www.w3.org/Graphics/SVG/1.1/DTD/svg11.dtd"><svg xmlns="http://www.w3.org/2000/svg" xmlns:xlink="http://www.w3.org/1999/xlink" version="1.1" id="mdi-home-group" width="24" height="24" viewBox="0 0 24 24"><path d="M17,16H15V22H12V17H8V22H5V16H3L10,10L17,16M6,2L10,6H9V9H7V6H5V9H3V6H2L6,2M18,3L23,8H22V12H19V9H17V12H15.34L14,10.87V8H13L18,3Z" /></svg>
